X: 1794
T: Ar Lan Y Mor
R: barndance
M: 4/4
K: Gmajor
d2- de d4-|d6 B2|c2- cd c2 B2-|B6 d2|d2- de d4-|d6 B2|c2- cd c2 B2-|B6 d2|
d2- de d4-|d6 B2|A2 G2 E2 G2-|G6 G2|G2 e2 d4-|d6 B2|A2- AB AG- G2-|G6||

